icons/flame-16.svg

<svg xmlns="http://www.w3.org/2000/svg" width="16" height="16" viewBox="0 0 16 16"><path d="M9.533.753V.752c.217 2.385 1.463 3.626 2.653 4.81C13.37 6.74 14.498 7.863 14.498 10c0 3.5-3 6-6.5 6S1.5 13.512 1.5 10c0-1.298.536-2.56 1.425-3.286.376-.308.862 0 1.035.454C4.46 8.487 5.581 8.419 6 8c.282-.282.341-.811-.003-1.5C4.34 3.187 7.035.75 8.77.146c.39-.137.726.194.763.607zM7.998 14.5c2.832 0 5-1.98 5-4.5 0-1.463-.68-2.19-1.879-3.383l-.036-.037c-1.013-1.008-2.3-2.29-2.834-4.434-.322.256-.63.579-.864.953-.432.696-.621 1.58-.046 2.73.473.947.67 2.284-.278 3.232-.61.61-1.545.84-2.403.633a2.79 2.79 0 01-1.436-.874A3.198 3.198 0 003 10c0 2.53 2.164 4.5 4.998 4.5z"/></svg>

<svg xmlns="http://www.w3.org/2000/svg" width="16" height="16" viewBox="0 0 16 16">
  <defs/>
  <path d="M9.533,0.753 L9.533,0.752 C9.75,3.137 10.996,4.378 12.186,5.562 C13.37,6.74 14.498,7.863 14.498,10 C14.498,13.5 11.498,16 7.998,16 C4.498,16 1.5,13.512 1.5,10 C1.5,8.702 2.036,7.44 2.925,6.714 C3.301,6.406 3.787,6.714 3.96,7.168 C4.46,8.487 5.581,8.419 6,8 C6.282,7.718 6.341,7.189 5.997,6.5 C4.34,3.187 7.035,0.75 8.77,0.146 C9.16,0.009 9.496,0.34 9.533,0.753 Z M7.998,14.5 C10.83,14.5 12.998,12.52 12.998,10 C12.998,8.537 12.318,7.81 11.119,6.617 L11.083,6.58 C10.07,5.572 8.783,4.29 8.249,2.146 C7.927,2.402 7.619,2.725 7.385,3.099 C6.953,3.795 6.764,4.679 7.339,5.829 C7.812,6.776 8.009,8.113 7.061,9.061 C6.451,9.671 5.516,9.901 4.658,9.694 C4.101,9.557 3.599,9.252 3.222,8.82 C3.074,9.196 2.999,9.596 3,10 C3,12.53 5.164,14.5 7.998,14.5 Z"/>
</svg>
